svg/fluentui-system-icons/ic_fluent_checkmark_underline_circle_20_regular.svg

<svg width="20" height="20" viewBox="0 0 20 20" fill="none" xmlns="http://www.w3.org/2000/svg">
<path d="M10 17C6.13401 17 3 13.866 3 10C3 6.13401 6.13401 3 10 3C13.866 3 17 6.13401 17 10C17 13.866 13.866 17 10 17ZM10 18C14.4183 18 18 14.4183 18 10C18 5.58172 14.4183 2 10 2C5.58172 2 2 5.58172 2 10C2 14.4183 5.58172 18 10 18ZM13.8536 6.14645C14.0488 6.34171 14.0488 6.65829 13.8536 6.85355L9.85355 10.8536C9.65829 11.0488 9.34171 11.0488 9.14645 10.8536L7.14645 8.85355C6.95118 8.65829 6.95118 8.34171 7.14645 8.14645C7.34171 7.95118 7.65829 7.95118 7.85355 8.14645L9.5 9.79289L13.1464 6.14645C13.3417 5.95118 13.6583 5.95118 13.8536 6.14645ZM7 13.5C7 13.7761 7.22386 14 7.5 14H12.4983C12.7744 14 12.9983 13.7761 12.9983 13.5C12.9983 13.2239 12.7744 13 12.4983 13H7.5C7.22386 13 7 13.2239 7 13.5Z" fill="#212121"/>
</svg>

<svg xmlns="http://www.w3.org/2000/svg" width="20" height="20"><path d="M10 17a7 7 0 1 1 0-14 7 7 0 0 1 0 14Zm0 1a8 8 0 1 0 0-16 8 8 0 0 0 0 16Zm3.854-11.854a.5.5 0 0 1 0 .708l-4 4a.5.5 0 0 1-.708 0l-2-2a.5.5 0 1 1 .708-.708L9.5 9.793l3.646-3.647a.5.5 0 0 1 .708 0ZM7 13.5a.5.5 0 0 0 .5.5h4.998a.5.5 0 0 0 0-1H7.5a.5.5 0 0 0-.5.5Z"/></svg>
